src/24x24/places/folder-gruvbox-mix-blue-meocloud.svg

<?xml version="1.0" encoding="UTF-8"?>
<svg width="24" height="24" version="1" xmlns="http://www.w3.org/2000/svg">
 <rect x="2" y="9.5" width="20" height="12" rx="1" ry="1" opacity=".2"/>
 <path d="m2 17c0 0.554 0.446 1 1 1h18c0.554 0 1-0.446 1-1v-11c0-0.554-0.446-1-1-1h-9c-1.5 0-2-2-3.5-2h-5.5c-0.554 0-1 0.446-1 1" fill="#266b79"/>
 <rect x="2" y="8.5" width="20" height="12" rx="1" ry="1" opacity=".2"/>
 <rect x="4" y="7" width="16" height="8" rx="1" ry="1" fill="#dadec0"/>
 <rect x="2" y="9" width="20" height="12" rx="1" ry="1" fill="#80aa9e"/>
 <path d="m3 3c-0.554 0-1 0.446-1 1v0.5c0-0.554 0.446-1 1-1h5.5c1.5 0 2 2 3.5 2h9c0.554 0 1 0.446 1 1v-0.5c0-0.554-0.446-1-1-1h-9c-1.5 0-2-2-3.5-2z" fill="#dadec0" opacity=".1"/>
 <path d="m12.801 12c-0.802 0-1.537 0.509-1.901 1.312-0.159-0.073-0.328-0.113-0.5-0.113-0.6664 0-1.2315 0.557-1.32 1.301-0.6464 0.25-1.079 0.931-1.0801 1.699 0 0.994 0.716 1.801 1.5996 1.801h4.8005c0.884 0 1.6-0.807 1.6-1.801-1e-3 -0.764-0.429-1.442-1.07-1.695 2e-3 -0.034 2e-3 -0.069 4e-3 -0.104 0-1.325-0.955-2.4-2.133-2.4zm0 1c0.569 0 1.132 0.555 1.133 1.398v2e-3c-1e-3 0.015-2e-3 0.033-2e-3 0.041a1.0001 1.0001 0 0 0 0.63 0.993c0.213 0.083 0.437 0.377 0.438 0.765 0 0.514-0.324 0.801-0.6 0.801h-4.8005c-0.2752 0-0.5986-0.287-0.5996-0.799v-2e-3c0.0014-0.392 0.2271-0.685 0.4414-0.767a1.0001 1.0001 0 0 0 0.6327-0.815c0.037-0.307 0.215-0.418 0.326-0.418 0.023 0 0.05 7e-3 0.082 0.022a1.0001 1.0001 0 0 0 1.33-0.496c0.221-0.488 0.609-0.725 0.989-0.725z" fill="#374141"/>
</svg>

<svg xmlns="http://www.w3.org/2000/svg" width="24" height="24" version="1">
 <rect style="opacity:0.2" width="20" height="12" x="2" y="9.5" rx="1" ry="1"/>
 <path style="fill:#266b79" d="M 2,17 C 2,17.554 2.446,18 3,18 H 21 C 21.554,18 22,17.554 22,17 V 6 C 22,5.446 21.554,5 21,5 H 12 C 10.5,5 10,3 8.5,3 H 3 C 2.446,3 2,3.446 2,4"/>
 <rect style="opacity:0.2" width="20" height="12" x="2" y="8.5" rx="1" ry="1"/>
 <rect style="fill:#dadec0" width="16" height="8" x="4" y="7" rx="1" ry="1"/>
 <rect style="fill:#80aa9e" width="20" height="12" x="2" y="9" rx="1" ry="1"/>
 <path style="opacity:0.1;fill:#dadec0" d="M 3,3 C 2.446,3 2,3.446 2,4 V 4.5 C 2,3.946 2.446,3.5 3,3.5 H 8.5 C 10,3.5 10.5,5.5 12,5.5 H 21 C 21.554,5.5 22,5.946 22,6.5 V 6 C 22,5.446 21.554,5 21,5 H 12 C 10.5,5 10,3 8.5,3 Z"/>
 <path style="fill:#374141" d="M 12.801,12 C 11.999,12 11.264,12.509 10.9,13.312 10.741,13.239 10.572,13.199 10.4,13.199 9.7336,13.199 9.1685,13.756 9.08,14.5 8.4336,14.75 8.001,15.431 7.9999,16.199 7.9999,17.193 8.7159,18 9.5995,18 H 14.4 C 15.284,18 16,17.193 16,16.199 15.999,15.435 15.571,14.757 14.93,14.504 14.932,14.47 14.932,14.435 14.934,14.4 14.934,13.075 13.979,12 12.801,12 Z M 12.801,13 C 13.37,13 13.933,13.555 13.934,14.398 V 14.4 C 13.933,14.415 13.932,14.433 13.932,14.441 A 1.0001,1.0001 0 0 0 14.562,15.434 C 14.775,15.517 14.999,15.811 15,16.199 15,16.713 14.676,17 14.4,17 H 9.5995 C 9.3243,17 9.0009,16.713 8.9999,16.201 V 16.199 C 9.0013,15.807 9.227,15.514 9.4413,15.432 A 1.0001,1.0001 0 0 0 10.074,14.617 C 10.111,14.31 10.289,14.199 10.4,14.199 10.423,14.199 10.45,14.206 10.482,14.221 A 1.0001,1.0001 0 0 0 11.812,13.725 C 12.033,13.237 12.421,13 12.801,13 Z"/>
</svg>
